X: 22739
T: Lancer's, The
R: jig
M: 6/8
K: Dmajor
d|:"D"~f3 fed|ABA AFA|~f3 fed|"Em"e3 e2 f|
"G"g2 g bag|"D"~f3 agf|"A"e2 e f2 e|1 "D"d3 d2 e:|2 d3 d2 g||
|:"Bm"fBB fBB|"C"gcc gcc|"D"add add|"Em"b3 bag|
"Bm"fBB fBB|"C"gcc gcc|"D"~f3 "A"edc|"D"d3 d3:|

